TV/Source/Playboy TV.svg

<svg height="120.825" preserveAspectRatio="xMidYMid meet" viewBox="0 0 79.408001 96.659998" width="99.260002" xmlns="http://www.w3.org/2000/svg"><path d="m18.234375 0 .78125 1.7714844c.937797 2.099539 2.346078 4.8175337 3.21875 6.1582031.156299.2656044.298828.5069781.298828.5449219 0 .3035477 3.113346 4.8185456 4.962891 7.2089846 3.191114 4.110542 4.897161 6.070359 8.921875 10.24414 4.597812 4.755583 7.618713 7.133895 13.076172 10.283204 2.070968 1.188895 6.994567 3.579516 9.755859 4.730468 1.185271.493265 2.241503.935741 2.345703.986328.221425.113832 1.978345.822159 4.570313 1.833985.820572.328843 2.18984.873352 3.023437 1.214843.833598.341492 1.549463.619141 1.601563.619141.039075 0 .416538.151056.820312.328125.820573.366788 1.067243.469077 2.539063 1.076172.560073.227661 1.055981.466991 1.082031.517578.091175.139126-.221753.176921-3.074219.480469-2.513817.265604-3.035034.328621-5.470703.720703-4.285212.670335-8.90863 1.834162-11.669922 2.921875-5.548633 2.188074-8.20501 3.680601-12.529297 7.044922-1.354596 1.049769-5.379877 5.110503-6.421875 6.451172-.833597 1.087713-2.201172 3.124641-2.201172 3.289062 0 .025295-.16986.327408-.365234.65625-.416799.695631-1.446495 3.035429-1.824219 4.148438-1.302496 3.806995-1.535441 8.094927-.636719 11.269531.468898 1.63157 2.032062 4.175071 3.582032 5.806641 2.005845 2.124833 5.535098 4.880487 7.77539 6.082031.143275.075886.793419.430089 1.431641.796875.651249.366787 1.76019.935852 2.476563 1.277344 1.771394.834757 4.114562 1.898439 4.179687 1.898439.02605 0 .886398.31495 1.902344.70703 1.028972.39208 2.428171.8699 3.085937 1.08789l1.427735.53125h42.359375v-102.6875l-.183594.3046875c-.100294.1333612-.554539.8202796-1.023438 1.5917969-2.292393 3.7690519-3.60965 6.439152-4.794922 9.7402346-.273523.758869-.807176 2.212783-1.171874 3.224609-3.215044 8.874248-3.567374 19.417491-3.894532 29.242188-.065125 1.593626-.154931 2.933787-.207031 2.984375-.117224.126478-.522481-.378746-1.486328-1.896485-.468899-.708277-1.457443-2.20042-2.212891-3.300781-.755447-1.113008-1.471972-2.150032-1.576172-2.314453-2.422642-3.693165-11.150035-14.886988-14.328125-18.339844-.325625-.341491-.820873-.910462-1.107421-1.251953-1.094097-1.302726-4.636149-5.123096-6.433594-6.957031-4.076814-4.1358394-8.37462-8.1705089-11.63086-10.9277346-1.276446-1.0750651-2.091809-1.93090132-2.240234-2.0996094z" transform="matrix(.80000008 0 0 .8 -.000003 -.000003)"/><g fill="#fff" transform="matrix(1.0080915 0 0 1.0080915 -.363717 -.241655)"><path d="m4.191952 90.462965c.6278453 0 1.0878661-.30987 1.0878661-1.16258 0-.920218-.8717049-1.039358-1.4446947-1.039358h-.7701421v2.201938zm-3.83115694 5.39566v-9.915709h3.98051474c2.3766862 0 3.5210367 1.305191 3.5210367 3.343969 0 2.13971-1.0541938 3.48716-3.4303361 3.48716h-1.3664858v3.08399h-2.70472954z"/><path d="m22.947 172.108h4.983v12.964h6.856v3.932h-11.839z" transform="matrix(.54311839 0 0 .58686666 -3.833708 -15.061522)"/><path d="m19.61434 88.931245-.836945 3.55171h1.70865zm-4.308012 6.92738 2.962167-9.915709h2.745463l2.960537 9.915709h-2.696584l-.323154-1.30344h-2.686262l-.315011 1.30344z"/><path d="m65.834 172.108-5.66 10.648v6.248h-4.978v-6.159l-5.656-10.737h5.565l2.623 5.72 2.622-5.72z" transform="matrix(.54311839 0 0 .58686666 -3.833708 -15.061522)"/><path d="m36.118622 91.713575c.858129 0 1.493035.0522 1.493035.92431 0 .74063-.505646.91317-1.171509.91317h-1.179108v-1.83748zm.09396-3.452548c.568102 0 1.099269.008 1.099269.780548 0 .58216-.388327.86503-.928188.86503h-1.122625v-1.645578zm.363345 7.597598c2.144232 0 3.56177-.76939 3.56177-2.98893 0-1.07102-.485003-1.99945-1.381692-2.27411.526283-.39847 1.081348-1.14145 1.081348-2.157308 0-1.973047-1.476738-2.495361-3.334746-2.495361h-3.946843v9.915709h4.020162z"/><path d="m45.167518 88.107277c1.188887-.044 1.654883 1.390878 1.654883 2.744788 0 1.63441-.465452 2.84629-1.637503 2.84629-1.293709 0-1.607629-1.57867-1.607629-2.84629 0-1.25943.36606-2.744788 1.590249-2.744788m.01738-2.423758c-2.559718 0-4.315077 2.022358-4.315077 5.132746 0 3.37564 1.731463 5.30761 4.315077 5.30761 2.450007 0 4.340059-1.89909 4.340059-5.27181 0-2.628588-1.384953-5.168546-4.340059-5.168546"/><g transform="matrix(.54311839 0 0 .58686666 -3.833708 -15.061522)"><path d="m115.016 172.108-5.666 10.648v6.248h-4.977v-6.159l-5.666-10.737h5.574l2.623 5.72 2.607-5.72z"/><path d="m127.125 189.004v-12.463h-4.48v-4.433h13.937v4.433h-4.467v12.463z"/><path d="m144.974 183.347 2.767-11.239h5.016l-5.273 16.896h-4.998l-5.194-16.896h5.008z"/></g></g><g fill="#fff" transform="translate(0 -.000003)"><path d="m-.00000305.0000363v82.1503617h45.52000405l-1.141349-.425044c-.526213-.174392-1.646355-.556504-2.469533-.87017-.812757-.313666-1.500475-.566623-1.521315-.566623-.0521 0-1.927695-.849933-3.344811-1.517739-.573098-.273193-1.458795-.728514-1.979794-1.021944-.510578-.293429-1.031577-.576741-1.146197-.63745-1.792234-.961235-4.616046-3.167016-6.220722-4.866883-1.239976-1.305256-2.490373-3.339026-2.865491-4.644282-.718978-2.539683-.531419-5.969773.510578-9.015369.302179-.890407 1.125357-2.762285 1.458796-3.31879.156299-.263074.291759-.505913.291759-.526149 0-.131537 1.094097-1.760577 1.760975-2.630748.833598-1.072535 4.053368-4.320497 5.137045-5.160312 3.45943-2.691457 5.585104-3.885412 10.024011-5.635871 2.209034-.87017 5.908123-1.80105 9.336293-2.337318 1.948535-.313666 2.365334-.364258 4.376388-.576741 2.281973-.242838 2.532053-.273193 2.459113-.384494-.02084-.04047-.416799-.23272-.864858-.414849-1.177456-.485676-1.375436-.566622-2.031894-.860052-.323019-.141655-.625198-.263074-.656458-.263074-.04168 0-.614778-.222602-1.281656-.495795s-1.760975-.708278-2.417433-.971353c-2.073574-.809461-3.48027-1.376083-3.65741-1.467148-.08336-.04047-.927377-.394612-1.875594-.789224-2.209034-.920762-6.147783-2.833113-7.804558-3.784229-4.365967-2.519447-6.7834-4.42168-10.46165-8.226146-3.219771-3.339025-4.584787-4.907356-7.137679-8.19579-1.479636-1.912351-3.970009-5.5245707-3.970009-5.7674089 0-.030355-.11462-.2226017-.239659-.4350852-.698138-1.0725355-1.823495-3.2479614-2.573733-4.9275926l-.625198-1.41672655z"/><path d="m37.574412-.00000305c.11874.13496646.771078.81975006 1.792235 1.67980215 2.604992 2.2057806 6.043582 5.4335056 9.305033 8.7421769 1.437956 1.467148 4.272188 4.522862 5.147465 5.565043.229239.273193.625198.728515.885698 1.001708 2.542472 2.762285 9.523852 11.716945 11.461966 14.671477.08336.131537.656459.961235 1.260817 1.851641.604358.880289 1.396276 2.074244 1.771395 2.640866.771078 1.214191 1.094097 1.618922 1.187876 1.517739.04168-.04047.11462-1.113008.16672-2.387909.261726-7.859757.543536-16.294019 3.115571-23.393417.291759-.809461.718978-1.9730613.937797-2.5801569.948217-2.6408659 2.000634-4.7758187 3.834549-7.7910602.375119-.61721381.739035-1.16821175.81927-1.27490071l.1472-.24300844z"/><path d="m42.982376 47.84942c-2.073574.313666-3.615729 1.740341-4.167988 3.855057-.666878 2.539683.979477 5.46386 3.56363 6.334031.833598.273193 2.469533.273193 3.30313-.02024 1.573416-.526149 2.688353-1.426675 3.261451-2.620629 1.708875-3.531273-.08336-6.931008-3.980428-7.548222-.969058-.161892-.896118-.161892-1.979795 0z"/></g></svg>

<?xml version="1.0" encoding="UTF-8" standalone="no"?>
<svg
   xmlns:dc="http://purl.org/dc/elements/1.1/"
   xmlns:cc="http://creativecommons.org/ns#"
   xmlns:rdf="http://www.w3.org/1999/02/22-rdf-syntax-ns#"
   xmlns:svg="http://www.w3.org/2000/svg"
   xmlns="http://www.w3.org/2000/svg"
   xmlns:sodipodi="http://sodipodi.sourceforge.net/DTD/sodipodi-0.dtd"
   xmlns:inkscape="http://www.inkscape.org/namespaces/inkscape"
   version="1.0"
   width="99.260002"
   height="120.825"
   viewBox="0 0 79.408001 96.659998"
   preserveAspectRatio="xMidYMid meet"
   id="svg2"
   inkscape:version="0.91 r13725"
   sodipodi:docname="Playboy TV.svg">
  <title
     id="title3008">Playboy TV</title>
  <defs
     id="defs16" />
  <sodipodi:namedview
     pagecolor="#ffffff"
     bordercolor="#666666"
     borderopacity="1"
     objecttolerance="10"
     gridtolerance="10"
     guidetolerance="10"
     inkscape:pageopacity="0"
     inkscape:pageshadow="2"
     inkscape:window-width="1920"
     inkscape:window-height="1017"
     id="namedview14"
     showgrid="false"
     inkscape:showpageshadow="false"
     inkscape:zoom="4"
     inkscape:cx="55.664758"
     inkscape:cy="45.087071"
     inkscape:window-x="-8"
     inkscape:window-y="-8"
     inkscape:window-maximized="1"
     inkscape:current-layer="svg2"
     fit-margin-top="0"
     fit-margin-left="0"
     fit-margin-right="0"
     fit-margin-bottom="0" />
  <metadata
     id="metadata4">
Created by potrace 1.10, written by Peter Selinger 2001-2011
<rdf:RDF>
  <cc:Work
     rdf:about="">
    <dc:format>image/svg+xml</dc:format>
    <dc:type
       rdf:resource="http://purl.org/dc/dcmitype/StillImage" />
    <dc:title>Playboy TV</dc:title>
  </cc:Work>
</rdf:RDF>
</metadata>
  <path
     style="opacity:1;fill:#000000;fill-opacity:1;stroke:none;stroke-opacity:1"
     d="M 18.234375 0 L 19.015625 1.7714844 C 19.953422 3.8710234 21.361703 6.5890181 22.234375 7.9296875 C 22.390674 8.1952919 22.533203 8.4366656 22.533203 8.4746094 C 22.533203 8.7781571 25.646549 13.293155 27.496094 15.683594 C 30.687208 19.794136 32.393255 21.753953 36.417969 25.927734 C 41.015781 30.683317 44.036682 33.061629 49.494141 36.210938 C 51.565109 37.399833 56.488708 39.790454 59.25 40.941406 C 60.435271 41.434671 61.491503 41.877147 61.595703 41.927734 C 61.817128 42.041566 63.574048 42.749893 66.166016 43.761719 C 66.986588 44.090562 68.355856 44.635071 69.189453 44.976562 C 70.023051 45.318054 70.738916 45.595703 70.791016 45.595703 C 70.830091 45.595703 71.207554 45.746759 71.611328 45.923828 C 72.431901 46.290616 72.678571 46.392905 74.150391 47 C 74.710464 47.227661 75.206372 47.466991 75.232422 47.517578 C 75.323597 47.656704 75.010669 47.694499 72.158203 47.998047 C 69.644386 48.263651 69.123169 48.326668 66.6875 48.71875 C 62.402288 49.389085 57.77887 50.552912 55.017578 51.640625 C 49.468945 53.828699 46.812568 55.321226 42.488281 58.685547 C 41.133685 59.735316 37.108404 63.79605 36.066406 65.136719 C 35.232809 66.224432 33.865234 68.26136 33.865234 68.425781 C 33.865234 68.451076 33.695374 68.753189 33.5 69.082031 C 33.083201 69.777662 32.053505 72.11746 31.675781 73.230469 C 30.373285 77.037464 30.14034 81.325396 31.039062 84.5 C 31.50796 86.13157 33.071124 88.675071 34.621094 90.306641 C 36.626939 92.431474 40.156192 95.187128 42.396484 96.388672 C 42.539759 96.464558 43.189903 96.818761 43.828125 97.185547 C 44.479374 97.552334 45.588315 98.121399 46.304688 98.462891 C 48.076082 99.297648 50.41925 100.36133 50.484375 100.36133 C 50.510425 100.36133 51.370773 100.67628 52.386719 101.06836 C 53.415691 101.46044 54.81489 101.93826 55.472656 102.15625 L 56.900391 102.6875 L 99.259766 102.6875 L 99.259766 0 L 99.076172 0.3046875 C 98.975878 0.4380487 98.521633 1.1249671 98.052734 1.8964844 C 95.760341 5.6655363 94.443084 8.3356364 93.257812 11.636719 C 92.984289 12.395588 92.450636 13.849502 92.085938 14.861328 C 88.870894 23.735576 88.518564 34.278819 88.191406 44.103516 C 88.126281 45.697142 88.036475 47.037303 87.984375 47.087891 C 87.867151 47.214369 87.461894 46.709145 86.498047 45.191406 C 86.029148 44.483129 85.040604 42.990986 84.285156 41.890625 C 83.529709 40.777617 82.813184 39.740593 82.708984 39.576172 C 80.286342 35.883007 71.558949 24.689184 68.380859 21.236328 C 68.055234 20.894837 67.559986 20.325866 67.273438 19.984375 C 66.179341 18.681649 62.637289 14.861279 60.839844 13.027344 C 56.76303 8.8915046 52.465224 4.8568351 49.208984 2.0996094 C 47.932538 1.0245443 47.117175 0.16870808 46.96875 0 L 18.234375 0 z "
     transform="matrix(0.80000008,0,0,0.8,-3.0517581e-6,-3.0517578e-6)"
     id="rect4220" />
  <g
     id="g4146"
     transform="matrix(1.0080915,0,0,1.0080915,-0.36371748,-0.24165459)"
     style="fill:#ffffff;fill-opacity:1">
    <path
       style="fill:#ffffff;fill-opacity:1"
       inkscape:connector-curvature="0"
       id="path18"
       d="m 4.191952,90.462965 c 0.6278453,0 1.0878661,-0.30987 1.0878661,-1.16258 0,-0.920218 -0.8717049,-1.039358 -1.4446947,-1.039358 l -0.7701421,0 0,2.201938 1.1269707,0 z m -3.83115694,5.39566 0,-9.915709 3.98051474,0 c 2.3766862,0 3.5210367,1.305191 3.5210367,3.343969 0,2.13971 -1.0541938,3.48716 -3.4303361,3.48716 l -1.3664858,0 0,3.08399 -2.70472954,0 z" />
    <polygon
       style="fill:#ffffff;fill-opacity:1"
       id="polygon20"
       points="22.947,172.108 27.93,172.108 27.93,185.072 34.786,185.072 34.786,189.004 22.947,189.004 "
       transform="matrix(0.54311839,0,0,0.58686666,-3.8337081,-15.061522)" />
    <path
       style="fill:#ffffff;fill-opacity:1"
       inkscape:connector-curvature="0"
       id="path22"
       d="m 19.61434,88.931245 -0.836945,3.55171 1.70865,0 -0.871705,-3.55171 z m -4.308012,6.92738 2.962167,-9.915709 2.745463,0 2.960537,9.915709 -2.696584,0 -0.323154,-1.30344 -2.686262,0 -0.315011,1.30344 -2.647156,0 z" />
    <polygon
       style="fill:#ffffff;fill-opacity:1"
       id="polygon24"
       points="65.834,172.108 60.174,182.756 60.174,189.004 55.196,189.004 55.196,182.845 49.54,172.108 55.105,172.108 57.728,177.828 60.35,172.108 "
       transform="matrix(0.54311839,0,0,0.58686666,-3.8337081,-15.061522)" />
    <path
       style="fill:#ffffff;fill-opacity:1"
       inkscape:connector-curvature="0"
       id="path26"
       d="m 36.118622,91.713575 c 0.858129,0 1.493035,0.0522 1.493035,0.92431 0,0.74063 -0.505646,0.91317 -1.171509,0.91317 l -1.179108,0 0,-1.83748 0.857582,0 z m 0.09396,-3.452548 c 0.568102,0 1.099269,0.008 1.099269,0.780548 0,0.58216 -0.388327,0.86503 -0.928188,0.86503 l -1.122625,0 0,-1.645578 0.951544,0 z m 0.363345,7.597598 c 2.144232,0 3.56177,-0.76939 3.56177,-2.98893 0,-1.07102 -0.485003,-1.99945 -1.381692,-2.27411 0.526283,-0.39847 1.081348,-1.14145 1.081348,-2.157308 0,-1.973047 -1.476738,-2.495361 -3.334746,-2.495361 l -3.946843,0 0,9.915709 4.020162,0 z" />
    <path
       style="fill:#ffffff;fill-opacity:1"
       inkscape:connector-curvature="0"
       id="path28"
       d="m 45.167518,88.107277 c 1.188887,-0.044 1.654883,1.390878 1.654883,2.744788 0,1.63441 -0.465452,2.84629 -1.637503,2.84629 -1.293709,0 -1.607629,-1.57867 -1.607629,-2.84629 0,-1.25943 0.36606,-2.744788 1.590249,-2.744788 m 0.01738,-2.423758 c -2.559718,0 -4.315077,2.022358 -4.315077,5.132746 0,3.37564 1.731463,5.30761 4.315077,5.30761 2.450007,0 4.340059,-1.89909 4.340059,-5.27181 0,-2.628588 -1.384953,-5.168546 -4.340059,-5.168546" />
    <polygon
       style="fill:#ffffff;fill-opacity:1"
       id="polygon30"
       points="115.016,172.108 109.35,182.756 109.35,189.004 104.373,189.004 104.373,182.845 98.707,172.108 104.281,172.108 106.904,177.828 109.511,172.108 "
       transform="matrix(0.54311839,0,0,0.58686666,-3.8337081,-15.061522)" />
    <polygon
       style="fill:#ffffff;fill-opacity:1"
       id="polygon32"
       points="127.125,189.004 127.125,176.541 122.645,176.541 122.645,172.108 136.582,172.108 136.582,176.541 132.115,176.541 132.115,189.004 "
       transform="matrix(0.54311839,0,0,0.58686666,-3.8337081,-15.061522)" />
    <polygon
       style="fill:#ffffff;fill-opacity:1"
       id="polygon34"
       points="144.974,183.347 147.741,172.108 152.757,172.108 147.484,189.004 142.486,189.004 137.292,172.108 142.3,172.108 "
       transform="matrix(0.54311839,0,0,0.58686666,-3.8337081,-15.061522)" />
  </g>
  <g
     id="g4165"
     transform="translate(0,-3.4931641e-6)"
     style="fill:#ffffff;fill-opacity:1">
    <path
       d="m -3.0517581e-6,3.6298242e-5 0,82.150361701758 45.5200040517581,0 -1.141349,-0.425044 c -0.526213,-0.174392 -1.646355,-0.556504 -2.469533,-0.87017 -0.812757,-0.313666 -1.500475,-0.566623 -1.521315,-0.566623 -0.0521,0 -1.927695,-0.849933 -3.344811,-1.517739 -0.573098,-0.273193 -1.458795,-0.728514 -1.979794,-1.021944 -0.510578,-0.293429 -1.031577,-0.576741 -1.146197,-0.63745 -1.792234,-0.961235 -4.616046,-3.167016 -6.220722,-4.866883 -1.239976,-1.305256 -2.490373,-3.339026 -2.865491,-4.644282 -0.718978,-2.539683 -0.531419,-5.969773 0.510578,-9.015369 0.302179,-0.890407 1.125357,-2.762285 1.458796,-3.31879 0.156299,-0.263074 0.291759,-0.505913 0.291759,-0.526149 0,-0.131537 1.094097,-1.760577 1.760975,-2.630748 0.833598,-1.072535 4.053368,-4.320497 5.137045,-5.160312 3.45943,-2.691457 5.585104,-3.885412 10.024011,-5.635871 2.209034,-0.87017 5.908123,-1.80105 9.336293,-2.337318 1.948535,-0.313666 2.365334,-0.364258 4.376388,-0.576741 2.281973,-0.242838 2.532053,-0.273193 2.459113,-0.384494 -0.02084,-0.04047 -0.416799,-0.23272 -0.864858,-0.414849 -1.177456,-0.485676 -1.375436,-0.566622 -2.031894,-0.860052 -0.323019,-0.141655 -0.625198,-0.263074 -0.656458,-0.263074 -0.04168,0 -0.614778,-0.222602 -1.281656,-0.495795 -0.666878,-0.273193 -1.760975,-0.708278 -2.417433,-0.971353 -2.073574,-0.809461 -3.48027,-1.376083 -3.65741,-1.467148 -0.08336,-0.04047 -0.927377,-0.394612 -1.875594,-0.789224 -2.209034,-0.920762 -6.147783,-2.833113 -7.804558,-3.784229 -4.365967,-2.519447 -6.7834,-4.42168 -10.46165,-8.226146 -3.219771,-3.339025 -4.584787,-4.907356 -7.137679,-8.19579 -1.479636,-1.912351 -3.970009,-5.5245707 -3.970009,-5.7674089 0,-0.030355 -0.11462,-0.2226017 -0.239659,-0.4350852 C 17.088751,5.2717814 15.963394,3.0963555 15.213156,1.4167243 L 14.587958,-2.2517581e-6 Z"
       id="path8"
       inkscape:connector-curvature="0"
       style="fill:#ffffff;fill-opacity:1;stroke:none"
       sodipodi:nodetypes="cccccscccccccsccccccccssccccccscccc" />
    <path
       d="M 37.574412,-3.0517581e-6 C 37.693152,0.13496341 38.34549,0.81974701 39.366647,1.6797991 c 2.604992,2.2057806 6.043582,5.4335056 9.305033,8.7421769 1.437956,1.467148 4.272188,4.522862 5.147465,5.565043 0.229239,0.273193 0.625198,0.728515 0.885698,1.001708 2.542472,2.762285 9.523852,11.716945 11.461966,14.671477 0.08336,0.131537 0.656459,0.961235 1.260817,1.851641 0.604358,0.880289 1.396276,2.074244 1.771395,2.640866 0.771078,1.214191 1.094097,1.618922 1.187876,1.517739 0.04168,-0.04047 0.11462,-1.113008 0.16672,-2.387909 0.261726,-7.859757 0.543536,-16.294019 3.115571,-23.393417 0.291759,-0.809461 0.718978,-1.9730613 0.937797,-2.5801569 0.948217,-2.6408659 2.000634,-4.7758187 3.834549,-7.7910602 0.375119,-0.61721381 0.739035,-1.16821175 0.81927,-1.27490071 l 0.1472,-0.2430084417581 z"
       id="path10"
       inkscape:connector-curvature="0"
       style="fill:#ffffff;fill-opacity:1;stroke:none"
       sodipodi:nodetypes="cccccccccccccccc" />
    <path
       d="m 42.982376,47.84942 c -2.073574,0.313666 -3.615729,1.740341 -4.167988,3.855057 -0.666878,2.539683 0.979477,5.46386 3.56363,6.334031 0.833598,0.273193 2.469533,0.273193 3.30313,-0.02024 1.573416,-0.526149 2.688353,-1.426675 3.261451,-2.620629 1.708875,-3.531273 -0.08336,-6.931008 -3.980428,-7.548222 -0.969058,-0.161892 -0.896118,-0.161892 -1.979795,0 z"
       id="path12"
       inkscape:connector-curvature="0"
       style="fill:#ffffff;fill-opacity:1;stroke:none" />
  </g>
</svg>
